X: 550
T: Aberdeen Lass
R: strathspey
M: 4/4
K: Amixolydian
"A"A2 c3/2e/ a3/2e/ g/f3/2|A2 c3/2e/ a3/2e/ f/g3/2|A2 c3/2e/ a3/2e/ g/f3/2|"G"g2 f3/2e/ (3f3/2g/e (3dcB:|
|:"A"A2 A3/2c/ e3/2c/ d/B3/2|A2 e3/2f/ (3g3/2f/e (3dcB|A2 A3/2c/ e3/2c/ d/B3/2|"G"G2 g3/2e/ (3d3/2B/A G2:|
%End of file

